Scanner.it8
IT8.7/2
ORIGINATOR "Wolf Faust"
DESCRIPTOR "Kodak Professional Paper, L* a* b* (light D50, viewing angle 2)"
MANUFACTURER "Wolf Faust - http://www.coloraid.de"
CREATED "January 30, 2018"
PROD_DATE "2017:08"
SAMPLE_BACKING "black"
SERIAL "5x7 R170830 Batch Average Data"
MATERIAL "Kodak Professional Endura Premier"
KEYWORD "MEAN_DE" # Mean Delta E of samples compared to batch average
NUMBER_OF_FIELDS 18
BEGIN_DATA_FORMAT
SAMPLE_ID  XYZ_X   XYZ_Y   XYZ_Z          LAB_L   LAB_A   LAB_B          LAB_C   LAB_H          D_RED  D_GREEN  D_BLUE  D_VIS          STDEV_X STDEV_Y STDEV_Z        MEAN_DE  STDEV_DE
END_DATA_FORMAT
NUMBER_OF_SETS 288
BEGIN_DATA
A1          3.34    2.81    1.95          19.29   10.86    3.40          11.38   17.40           1.37    1.66    1.61    1.51            0.05    0.04    0.03           0.30     0.33
A2          4.18    2.83    1.63          19.36   23.17    6.87          24.17   16.52           1.21    1.83    1.69    1.47            0.05    0.03    0.03           0.38     0.44 
A3          5.11    2.95    1.44          19.86   33.22    9.95          34.68   16.67           1.10    2.02    1.75    1.42            0.06    0.04    0.02           0.33     0.37
A4          5.51    3.15    1.52          20.62   34.74   10.32          36.24   16.54           1.07    2.01    1.73    1.39            0.07    0.04    0.03           0.33     0.41 
A5         12.39   10.77    7.65          39.19   14.41    4.64          15.14   17.85           0.80    1.06    1.02    0.94            0.15    0.14    0.12           0.42     0.47
A6         14.78   10.85    6.74          39.32   29.14    8.63          30.39   16.49           0.68    1.17    1.08    0.91            0.14    0.11    0.11           0.31     0.35 
A7         17.09   10.87    5.88          39.35   42.27   12.54          44.09   16.52           0.59    1.31    1.15    0.88            0.14    0.12    0.10           0.37     0.42
A8         20.53   11.09    4.91          39.73   58.37   18.00          61.08   17.14           0.50    1.55    1.23    0.83            0.11    0.09    0.08           0.27     0.32 
A9         40.90   40.16   31.52          69.59    6.76    2.45           7.19   19.88           0.34    0.42    0.42    0.39            0.34    0.35    0.36           0.37     0.41
A10        43.14   40.24   30.49          69.64   13.29    4.13          13.91   17.27           0.29    0.44    0.43    0.38            0.29    0.30    0.27           0.25     0.28
A11        45.35   40.24   29.06          69.64   19.70    6.41          20.72   18.04           0.25    0.47    0.45    0.37            0.31    0.34    0.26           0.30     0.33
A12        47.61   40.59   28.49          69.89   24.97    7.77          26.15   17.29           0.22    0.49    0.46    0.36            0.20    0.24    0.18           0.31     0.36 
A13        72.86   77.24   64.29          90.43   -3.33   -0.53           3.38  189.00           0.13    0.10    0.11    0.12            0.14    0.16    0.11           0.12     0.14
A14        73.61   75.19   63.41          89.48    2.31   -1.32           2.66  330.21           0.11    0.13    0.12    0.12            0.17    0.19    0.13           0.12     0.14 
A15        75.87   79.22   63.50          91.33   -1.04    1.78           2.06  120.36           0.10    0.10    0.12    0.10            0.28    0.30    0.18           0.13     0.16
A16        75.13   78.08   64.07          90.82   -0.32    0.35           0.47  132.87           0.11    0.11    0.11    0.11            0.18    0.19    0.16           0.12     0.13
A17        75.21   78.21   62.64          90.87   -0.40    1.82           1.86  102.33           0.10    0.11    0.12    0.11            0.18    0.19    0.11           0.11     0.12
A18        75.41   78.92   63.50          91.20   -1.38    1.55           2.08  131.74           0.10    0.10    0.12    0.10            0.14    0.14    0.15           0.10     0.11 
A19        70.01   72.95   63.24          88.42   -0.69   -2.98           3.06  256.97           0.14    0.13    0.12    0.14            0.23    0.22    0.15           0.16     0.18
A20         1.28    1.05    0.74           9.41    8.83    2.18           9.10   13.86           1.80    2.09    2.02    1.94            0.02    0.02    0.01           0.28     0.33 
A21         5.06    3.20    0.82          20.82   28.46   20.43          35.04   35.68           1.10    1.89    1.97    1.40            0.07    0.05    0.02           0.31     0.37
A22        10.19    5.81    0.90          28.91   42.82   33.07          54.10   37.68           0.78    1.80    1.93    1.12            0.08    0.05    0.02           0.36     0.39
B1          3.20    2.81    1.55          19.26    8.78    7.63          11.63   40.97           1.39    1.64    1.70    1.52            0.04    0.04    0.03           0.32     0.37
B2          3.79    2.82    1.03          19.30   17.85   14.44          22.96   38.98           1.26    1.77    1.87    1.48            0.07    0.05    0.02           0.37     0.43
B3          4.58    3.01    0.72          20.07   25.66   21.07          33.21   39.39           1.15    1.87    2.02    1.43            0.08    0.06    0.01           0.35     0.42
B4          5.22    3.14    0.52          20.61   31.37   25.64          40.52   39.26           1.08    1.97    2.16    1.39            0.08    0.06    0.01           0.38     0.44
B5         12.47   10.75    5.68          39.15   15.13   13.13          20.03   40.95           0.78    1.07    1.15    0.93            0.13    0.13    0.08           0.31     0.35
B6         14.47   10.86    3.82          39.34   27.20   23.61          36.02   40.95           0.67    1.17    1.31    0.90            0.14    0.11    0.07           0.30     0.33
B7         16.91   10.92    2.24          39.45   40.89   35.53          54.17   40.99           0.58    1.33    1.54    0.87            0.16    0.13    0.04           0.32     0.37
B8         19.95   11.05    1.15          39.67   55.78   47.82          73.47   40.61           0.50    1.56    1.82    0.83            0.08    0.06    0.02           0.22     0.25
B9         40.71   40.26   29.45          69.66    5.90    5.83           8.29   44.67           0.34    0.42    0.45    0.39            0.26    0.28    0.23           0.24     0.27
B10        43.02   40.62   26.40          69.91   11.75   11.33          16.33   43.96           0.29    0.44    0.49    0.37            0.28    0.32    0.18           0.27     0.32
B11        45.00   40.53   23.70          69.84   17.84   16.05          24.00   41.98           0.25    0.47    0.54    0.36            0.20    0.23    0.18           0.23     0.25
B12        46.74   40.59   21.54          69.89   22.57   20.27          30.34   41.92           0.22    0.49    0.58    0.36            0.24    0.26    0.21           0.27     0.32
B13        68.63   74.23   63.77          89.03   -6.31   -2.44           6.77  201.15           0.17    0.11    0.12    0.14            0.21    0.20    0.17           0.14     0.16
B14        71.14   71.11   62.20          87.54    5.52   -3.50           6.54  327.62           0.12    0.16    0.13    0.14            0.14    0.16    0.13           0.16     0.21
B15        73.14   76.65   54.22          90.16   -1.58    9.16           9.29   99.78           0.11    0.12    0.18    0.11            0.30    0.32    0.24           0.19     0.22
B16        61.38   63.82   52.09          83.87   -0.35    0.63           0.72  119.50           0.19    0.19    0.20    0.20            0.30    0.30    0.27           0.23     0.25
B17        68.15   68.20   52.54          86.10    5.29    3.99           6.62   37.00           0.12    0.18    0.20    0.16            0.17    0.20    0.19           0.15     0.18
B18        65.83   71.66   53.86          87.80   -7.16    5.49           9.02  142.54           0.17    0.13    0.19    0.15            0.27    0.27    0.25           0.20     0.23
B19        64.09   66.41   61.57          85.21    0.11   -6.90           6.90  270.95           0.18    0.17    0.13    0.18            0.19    0.21    0.15           0.15     0.18
B20         2.75    1.98    0.76          15.36   17.60   12.22          21.42   34.78           1.40    1.95    2.01    1.63            0.05    0.05    0.01           0.34     0.39
B21         8.42    4.90    0.84          26.44   38.93   29.83          49.05   37.47           0.87    1.84    1.96    1.20            0.12    0.08    0.01           0.30     0.35
B22        28.88   24.58   11.63          56.66   21.34   21.19          30.07   44.80           0.41    0.72    0.84    0.57            0.22    0.22    0.12           0.29     0.35
C1          4.21    4.06    2.15          23.87    4.26    9.48          10.39   65.80           1.29    1.43    1.56    1.37            0.06    0.07    0.04           0.36     0.41
C2          4.59    4.14    1.38          24.11    8.33   18.04          19.87   65.23           1.22    1.47    1.74    1.35            0.07    0.07    0.03           0.33     0.36
C3          5.09    4.29    0.80          24.62   12.52   27.38          30.11   65.42           1.15    1.51    1.96    1.32            0.09    0.08    0.01           0.36     0.41
C4          5.46    4.48    0.67          25.20   14.38   30.81          34.00   64.97           1.11    1.51    2.03    1.29            0.08    0.07    0.01           0.32     0.37
C5         23.38   22.28   10.57          54.32    8.68   20.43          22.20   66.99           0.54    0.71    0.88    0.63            0.22    0.22    0.13           0.28     0.32
C6         25.27   22.12    5.34          54.15   17.59   40.67          44.31   66.61           0.46    0.77    1.16    0.61            0.23    0.23    0.10           0.30     0.36
C7         27.64   22.36    2.31          54.41   26.19   60.66          66.07   66.65           0.40    0.83    1.50    0.59            0.24    0.22    0.04           0.27     0.31
C8         29.03   22.25    1.10          54.29   32.12   73.83          80.52   66.49           0.37    0.89    1.82    0.58            0.21    0.22    0.01           0.34     0.41
C9         47.47   47.66   32.57          74.61    4.25    9.52          10.42   65.92           0.27    0.34    0.40    0.31            0.34    0.35    0.26           0.24     0.28
C10        48.54   47.46   26.89          74.48    7.73   18.39          19.95   67.20           0.24    0.36    0.48    0.31            0.23    0.26    0.28           0.28     0.35
C11        50.06   47.49   21.70          74.50   11.76   27.91          30.29   67.15           0.21    0.38    0.57    0.30            0.28    0.31    0.24           0.30     0.35
C12        51.35   47.79   18.67          74.69   14.37   34.50          37.37   67.38           0.19    0.39    0.63    0.29            0.25    0.27    0.17           0.26     0.30
C13        60.92   68.60   62.99          86.31  -11.93   -6.39          13.54  208.18           0.25    0.12    0.12    0.18            0.15    0.13    0.12           0.21     0.23
C14        66.04   62.81   59.64          83.34   12.54   -8.21          14.99  326.80           0.14    0.23    0.15    0.19            0.24    0.31    0.12           0.32     0.40
C15        70.35   73.85   44.64          88.85   -1.82   17.82          17.92   95.82           0.11    0.14    0.26    0.13            0.26    0.27    0.24           0.20     0.22
C16        48.38   50.15   40.99          76.16    0.05    0.51           0.51   84.18           0.29    0.30    0.31    0.30            0.31    0.31    0.30           0.25     0.27
C17        60.49   57.76   41.67          80.60   11.62    7.30          13.73   32.12           0.15    0.28    0.30    0.22            0.27    0.33    0.33           0.26     0.30
C18        55.88   63.73   43.92          83.82  -13.42   10.03          16.75  143.23           0.26    0.16    0.27    0.20            0.23    0.24    0.21           0.21     0.24
C19        53.16   54.51   58.47          78.76    1.56  -14.92          15.01  275.99           0.28    0.25    0.16    0.27            0.34    0.35    0.20           0.28     0.32
C20         1.64    1.38    0.73          11.85    8.48    6.62          10.75   37.97           1.68    1.97    2.02    1.82            0.03    0.03    0.01           0.35     0.45
C21        23.00   17.24    4.63          48.56   31.79   34.75          47.10   47.55           0.47    0.98    1.23    0.70            0.18    0.16    0.09           0.28     0.34
C22        34.85   31.75   17.39          63.14   15.05   17.42          23.02   49.19           0.36    0.57    0.67    0.47            0.23    0.24    0.21           0.32     0.35
D1          3.99    4.16    2.20          24.20   -0.31    9.55           9.56   91.85           1.34    1.39    1.54    1.37            0.07    0.07    0.04           0.30     0.35
D2          4.03    4.20    1.41          24.33   -0.25   17.98          17.98   90.79           1.32    1.39    1.72    1.36            0.05    0.06    0.03           0.34     0.38
D3          4.16    4.35    0.85          24.79   -0.47   26.87          26.87   91.00           1.30    1.39    1.93    1.34            0.06    0.07    0.01           0.34     0.41
D4          4.36    4.58    0.74          25.50   -0.79   29.99          30.00   91.51           1.28    1.37    1.99    1.32            0.08    0.09    0.01           0.42     0.49
D5         26.17   27.22   13.39          59.18   -0.32   20.52          20.52   90.90           0.52    0.58    0.77    0.55            0.24    0.25    0.15           0.32     0.38
D6         26.03   27.22    7.38          59.18   -0.91   40.18          40.19   91.30           0.51    0.59    1.02    0.55            0.20    0.23    0.12           0.31     0.35
D7         25.97   27.34    3.53          59.29   -1.61   59.87          59.90   91.54           0.51    0.60    1.32    0.54            0.21    0.24    0.05           0.32     0.36
D8         25.81   27.31    1.46          59.26   -2.14   77.69          77.72   91.58           0.52    0.62    1.71    0.54            0.20    0.21    0.02           0.32     0.38
D9         53.43   55.57   37.48          79.37   -0.37   10.69          10.69   91.97           0.23    0.26    0.34    0.25            0.23    0.23    0.29           0.25     0.27
D10        53.51   55.77   30.19          79.48   -0.68   21.59          21.60   91.80           0.22    0.27    0.43    0.24            0.25    0.27    0.28           0.25     0.30
D11        53.56   55.92   24.32          79.57   -0.90   31.67          31.69   91.64           0.21    0.27    0.52    0.24            0.28    0.27    0.24           0.26     0.30
D12        52.90   55.57   10.92          79.37   -1.75   62.52          62.55   91.60           0.21    0.29    0.85    0.24            0.23    0.23    0.13           0.26     0.30
D13        52.89   62.35   61.94          83.10  -17.84  -10.91          20.91  211.44           0.34    0.15    0.13    0.23            0.20    0.17    0.10           0.22     0.26
D14        60.64   54.59   56.60          78.81   19.74  -12.92          23.59  326.79           0.16    0.31    0.17    0.25            0.25    0.35    0.14           0.36     0.45
D15        67.50   70.78   35.62          87.38   -1.62   27.09          27.14   93.42           0.12    0.16    0.36    0.14            0.29    0.30    0.24           0.29     0.32
D16        36.59   38.06   31.02          68.07   -0.35    0.60           0.70  119.82           0.41    0.42    0.42    0.42            0.28    0.27    0.23           0.25     0.28
D17        53.16   48.23   31.85          74.97   17.86   11.23          21.10   32.17           0.19    0.38    0.41    0.29            0.26    0.32    0.22           0.28     0.34
D18        45.90   55.24   34.60          79.18  -19.86   14.42          24.54  144.03           0.36    0.21    0.37    0.27            0.28    0.26    0.29           0.33     0.38
D19        42.64   43.24   54.59          71.72    2.83  -23.02          23.20  277.02           0.39    0.35    0.19    0.38            0.26    0.31    0.17           0.32     0.39
D20        13.75   10.36    2.65          38.47   26.42   30.32          40.22   48.94           0.69    1.20    1.46    0.92            0.19    0.17    0.04           0.43     0.50
D21        21.33   20.70   11.46          52.62    6.60   14.76          16.16   65.92           0.59    0.73    0.84    0.67            0.22    0.23    0.16           0.29     0.34
D22        38.30   36.50   19.92          66.90   10.21   18.40          21.04   60.98           0.33    0.49    0.61    0.42            0.22    0.24    0.21           0.24     0.28
E1          3.73    4.25    2.30          24.47   -5.27    9.14          10.55  119.98           1.41    1.34    1.52    1.37            0.06    0.08    0.04           0.34     0.38
E2          3.35    4.17    1.47          24.22  -10.25   17.07          19.92  120.98           1.48    1.33    1.70    1.39            0.04    0.06    0.03           0.32     0.37
E3          3.30    4.49    0.92          25.23  -15.32   26.35          30.48  120.18           1.52    1.27    1.89    1.36            0.07    0.09    0.02           0.39     0.48
E4          3.28    4.58    0.81          25.51  -16.89   28.77          33.36  120.42           1.54    1.26    1.94    1.35            0.06    0.08    0.01           0.39     0.47
E5         12.25   13.90    7.48          44.09   -7.62   13.77          15.74  118.97           0.89    0.83    1.02    0.86            0.14    0.16    0.13           0.39     0.45
E6         11.12   13.84    4.49          44.00  -15.26   27.64          31.57  118.90           0.95    0.81    1.23    0.87            0.14    0.17    0.09           0.31     0.37
E7         10.05   13.79    2.51          43.94  -23.06   40.92          46.98  119.41           1.04    0.79    1.46    0.87            0.11    0.14    0.05           0.36     0.42
E8          9.15   13.84    1.28          44.01  -30.58   53.57          61.69  119.72           1.15    0.77    1.75    0.88            0.11    0.14    0.01           0.34     0.37
E9         37.21   40.13   27.81          69.56   -4.79    8.35           9.63  119.86           0.41    0.39    0.47    0.40            0.32    0.34    0.27           0.31     0.34
E10        35.95   40.05   23.43          69.50   -8.66   15.97          18.16  118.48           0.42    0.38    0.54    0.40            0.25    0.28    0.29           0.28     0.33
E11        34.64   39.88   19.34          69.38  -12.57   23.91          27.02  117.74           0.44    0.38    0.62    0.40            0.26    0.28    0.23           0.27     0.35
E12        30.84   39.54   10.71          69.14  -25.04   45.52          51.95  118.81           0.53    0.36    0.86    0.41            0.24    0.22    0.13           0.35     0.40
E13        45.68   56.33   60.70          79.80  -23.14  -15.37          27.78  213.59           0.45    0.17    0.14    0.28            0.18    0.14    0.11           0.23     0.28
E14        55.19   46.66   53.26          73.97   27.36  -17.72          32.59  327.07           0.19    0.41    0.20    0.31            0.23    0.32    0.13           0.42     0.50
E15        64.96   67.83   28.07          85.92   -1.01   36.11          36.13   91.60           0.13    0.19    0.46    0.16            0.27    0.28    0.28           0.33     0.39
E16        27.18   28.22   23.05          60.08   -0.13    0.45           0.46  105.92           0.54    0.55    0.55    0.55            0.24    0.24    0.21           0.25     0.29
E17        46.50   39.80   24.01          69.33   24.31   14.59          28.35   30.97           0.22    0.50    0.53    0.37            0.21    0.26    0.22           0.28     0.37
E18        37.38   47.60   26.80          74.57  -25.80   18.68          31.85  144.10           0.47    0.26    0.48    0.34            0.27    0.26    0.25           0.28     0.32
E19        33.81   33.53   50.47          64.59    5.24  -30.82          31.26  279.65           0.51    0.46    0.23    0.49            0.28    0.30    0.14           0.37     0.45
E20        24.13   16.49    1.21          47.62   40.88   60.71          73.19   56.05           0.43    1.10    1.78    0.70            0.15    0.14    0.02           0.24     0.27
E21        16.97   13.94    2.63          44.14   20.97   40.28          45.42   62.50           0.62    1.02    1.45    0.80            0.20    0.19    0.04           0.33     0.39
E22        29.30   25.18    7.93          57.25   20.40   34.67          40.22   59.53           0.40    0.72    0.99    0.56            0.19    0.20    0.13           0.29     0.34
F1          1.41    1.80    1.30          14.40   -8.75    2.30           9.05  165.25           1.92    1.66    1.77    1.77            0.02    0.03    0.03           0.36     0.40
F2          1.10    1.75    1.06          14.11  -17.11    5.08          17.85  163.46           2.14    1.62    1.85    1.80            0.02    0.04    0.02           0.35     0.39
F3          1.01    1.96    0.99          15.29  -25.45    8.18          26.73  162.18           2.32    1.52    1.87    1.77            0.02    0.04    0.01           0.34     0.39
F4          1.02    2.13    1.05          16.17  -28.93    8.82          30.25  163.05           2.38    1.47    1.84    1.74            0.02    0.04    0.02           0.31     0.35
F5          6.40    8.00    5.65          33.98  -12.96    4.38          13.68  161.33           1.24    1.03    1.14    1.12            0.11    0.14    0.08           0.38     0.45
F6          5.21    7.97    4.75          33.92  -26.19    8.87          27.65  161.29           1.44    0.97    1.21    1.14            0.08    0.11    0.08           0.32     0.37
F7          4.13    7.87    3.92          33.71  -39.35   13.27          41.53  161.37           1.73    0.93    1.28    1.16            0.05    0.08    0.08           0.36     0.40
F8          3.10    7.93    3.07          33.84  -55.93   19.17          59.12  161.08           2.23    0.87    1.37    1.18            0.03    0.07    0.04           0.25     0.27
F9         36.84   39.92   31.31          69.41   -5.35    2.47           5.89  155.19           0.42    0.38    0.42    0.40            0.26    0.28    0.20           0.23     0.26
F10        35.08   40.08   30.08          69.52  -11.69    4.58          12.55  158.61           0.47    0.36    0.43    0.41            0.29    0.31    0.25           0.25     0.29
F11        33.11   39.62   28.82          69.20  -17.13    6.06          18.17  160.51           0.51    0.35    0.45    0.42            0.25    0.26    0.20           0.26     0.31
F12        28.45   39.72   25.24          69.27  -34.65   12.25          36.75  160.53           0.66    0.30    0.50    0.43            0.22    0.23    0.22           0.31     0.36
F13        38.90   50.24   58.99          76.22  -28.02  -19.83          34.33  215.30           0.57    0.20    0.15    0.34            0.19    0.17    0.17           0.24     0.31
F14        49.83   39.35   49.60          69.01   34.83  -22.22          41.31  327.46           0.23    0.51    0.24    0.38            0.27    0.30    0.20           0.34     0.42
F15        62.70   65.00   21.51          84.48    0.05   45.50          45.50   89.93           0.14    0.22    0.57    0.17            0.21    0.22    0.22           0.32     0.42
F16        19.39   20.16   16.49          52.02   -0.24    0.35           0.42  125.03           0.68    0.69    0.69    0.70            0.17    0.17    0.20           0.32     0.35
F17        40.61   32.60   17.43          63.84   30.65   18.55          35.83   31.19           0.26    0.63    0.67    0.44            0.25    0.29    0.23           0.36     0.43
